X: 3170
T: The GABERLUNZIE
Q: "Reel."
R: Reel.
%R: reel
B: James Kerr "Merry Melodies" v.3 p.20 #170
Z: 2016 John Chambers <jc:trillian.mit.edu>
M: C
L: 1/8
K: Dm
uA |\
d^cde f2ed | ^c=Bcd eAAc |\
d^cde fefg | abag fdd ::\
e |\
fefg a2(gf) |
edef gcce |\
[1 fefg abag | fde^c dDD :|\
[2 d^cde fefg | abag fdd |]

%%sep 1 1 500
%%sep 1 1 500

